img/icons/whatsapp-icon.svg

<svg width="15" height="15" viewBox="0 0 15 15" fill="none" xmlns="http://www.w3.org/2000/svg">
<path d="M7.50187 0H7.49813C3.36281 0 0 3.36375 0 7.5C0 9.14062 0.52875 10.6613 1.42781 11.8959L0.493125 14.6822L3.37594 13.7606C4.56187 14.5463 5.97656 15 7.50187 15C11.6372 15 15 11.6353 15 7.5C15 3.36469 11.6372 0 7.50187 0Z" fill="#4CAF50"/>
<path d="M11.866 10.5909C11.6851 11.1019 10.967 11.5256 10.3941 11.6494C10.0023 11.7328 9.49039 11.7994 7.76727 11.085C5.5632 10.1719 4.14383 7.93217 4.0332 7.78686C3.92727 7.64155 3.14258 6.60092 3.14258 5.52467C3.14258 4.44842 3.68914 3.92436 3.90945 3.69936C4.09039 3.51467 4.38945 3.4303 4.67633 3.4303C4.76914 3.4303 4.85258 3.43499 4.92758 3.43874C5.14789 3.44811 5.25852 3.46124 5.40383 3.80905C5.58477 4.24499 6.02539 5.32124 6.07789 5.43186C6.13133 5.54249 6.18477 5.69249 6.10977 5.8378C6.03945 5.9878 5.97758 6.05436 5.86695 6.18186C5.75633 6.30936 5.65133 6.40686 5.5407 6.54374C5.43945 6.6628 5.32508 6.7903 5.45258 7.01061C5.58008 7.22624 6.0207 7.9453 6.66945 8.5228C7.50664 9.26811 8.18539 9.50624 8.4282 9.60749C8.60914 9.68249 8.82477 9.66467 8.95695 9.52405C9.12477 9.34311 9.33195 9.04311 9.54289 8.7478C9.69289 8.53592 9.88227 8.50967 10.081 8.58467C10.2835 8.65498 11.3551 9.18467 11.5754 9.29436C11.7957 9.40498 11.941 9.45749 11.9945 9.5503C12.047 9.64311 12.047 10.079 11.866 10.5909Z" fill="#FAFAFA"/>
</svg>

<svg width="15" height="15" fill="none" xmlns="http://www.w3.org/2000/svg"><path d="M7.502 0h-.004C3.363 0 0 3.364 0 7.5c0 1.64.529 3.161 1.428 4.396l-.935 2.786 2.883-.921A7.435 7.435 0 007.502 15C11.637 15 15 11.635 15 7.5S11.637 0 7.502 0z" fill="#4CAF50"/><path d="M11.866 10.59c-.18.512-.899.936-1.472 1.06-.392.083-.904.15-2.627-.565-2.204-.913-3.623-3.153-3.734-3.298-.106-.145-.89-1.186-.89-2.262 0-1.077.546-1.6.766-1.826.181-.184.48-.269.767-.269.093 0 .177.005.252.009.22.01.33.022.476.37.18.436.621 1.512.674 1.623.053.11.107.26.032.406-.07.15-.132.216-.243.344-.11.127-.216.225-.326.362-.102.119-.216.246-.088.467.127.215.568.934 1.216 1.512.838.745 1.516.983 1.76 1.084.18.075.396.058.528-.083.168-.18.375-.48.586-.776.15-.212.34-.238.538-.163.203.07 1.274.6 1.494.71.22.11.366.162.42.255.052.093.052.529-.129 1.04z" fill="#FAFAFA"/></svg>
